packages/kaspersky-hexa-ui-icons/src/iconsSVGs/24/NoLicenseSolid.svg

<svg width="24" height="24" viewBox="0 0 24 24" fill="none" xmlns="http://www.w3.org/2000/svg">
<path fill-rule="evenodd" clip-rule="evenodd" d="M12 2C8.13401 2 5 5.13401 5 9C5 10.9073 5.76281 12.6364 7 13.899V21C7 21.3491 7.18209 21.673 7.4804 21.8544C7.7787 22.0358 8.15003 22.0485 8.46003 21.8879L12.0533 20.0262L15.529 21.8821C15.8389 22.0476 16.213 22.0383 16.5143 21.8576C16.8156 21.6769 17 21.3514 17 21V13.899C18.2372 12.6364 19 10.9073 19 9C19 5.13401 15.866 2 12 2ZM9.29289 6.29289C9.68342 5.90237 10.3166 5.90237 10.7071 6.29289L12 7.58579L13.2929 6.29289C13.6834 5.90237 14.3166 5.90237 14.7071 6.29289C15.0976 6.68342 15.0976 7.31658 14.7071 7.70711L13.4142 9L14.7071 10.2929C15.0976 10.6834 15.0976 11.3166 14.7071 11.7071C14.3166 12.0976 13.6834 12.0976 13.2929 11.7071L12 10.4142L10.7071 11.7071C10.3166 12.0976 9.68342 12.0976 9.29289 11.7071C8.90237 11.3166 8.90237 10.6834 9.29289 10.2929L10.5858 9L9.29289 7.70711C8.90237 7.31658 8.90237 6.68342 9.29289 6.29289Z" fill="black"/>
</svg>

<svg xmlns="http://www.w3.org/2000/svg" width="24" height="24" fill="none" viewBox="0 0 24 24"><path fill="#000" fill-rule="evenodd" d="M12 2C8.134 2 5 5.134 5 9c0 1.9073.7628 3.6364 2 4.899V21a1 1 0 0 0 1.46.8879l3.5933-1.8617 3.4757 1.8559A1 1 0 0 0 17 21v-7.101c1.2372-1.2626 2-2.9917 2-4.899 0-3.866-3.134-7-7-7M9.2929 6.2929c.3905-.3905 1.0237-.3905 1.4142 0L12 7.5858l1.2929-1.293c.3905-.3904 1.0237-.3904 1.4142 0 .3905.3906.3905 1.0238 0 1.4143L13.4142 9l1.2929 1.2929c.3905.3905.3905 1.0237 0 1.4142s-1.0237.3905-1.4142 0L12 10.4142l-1.2929 1.2929c-.3905.3905-1.0237.3905-1.4142 0s-.3905-1.0237 0-1.4142L10.5858 9l-1.293-1.2929c-.3904-.3905-.3904-1.0237 0-1.4142"/></svg>
